svg/black/qash.svg

<svg xmlns="http://www.w3.org/2000/svg" width="32" height="32" viewBox="0 0 32 32">
  <path d="M16,32 C7.163444,32 0,24.836556 0,16 C0,7.163444 7.163444,0 16,0 C24.836556,0 32,7.163444 32,16 C32,24.836556 24.836556,32 16,32 Z M16,5 C9.92492,5 5,9.92492 5,16 C5,22.07508 9.92492,27 16,27 C22.07508,27 27,22.07519 27,16 C27,9.92481 22.07519,5 16,5 Z M26.44065,15.55032 L25.54965,15.55901 L25.54602,15.18611 L26.43702,15.17753 L26.44065,15.55032 Z M26.21174,13.62719 L25.32921,13.74962 L25.27795,13.38035 L26.16037,13.25792 L26.21174,13.62719 Z M25.45175,11.2854 L25.60575,11.62486 L24.79483,11.99347 L24.64083,11.65412 L25.45175,11.2854 Z M24.34075,9.58953 L24.58682,9.8697 L23.91758,10.45765 L23.67151,10.17748 L24.34075,9.58953 Z M23.03571,8.19726 L23.31797,8.44058 L22.73662,9.11532 L22.45425,8.872 L23.03571,8.19726 Z M21.48053,6.93831 L21.79337,7.14126 L21.30838,7.88849 L20.99576,7.68554 L21.48053,6.93831 Z M19.71184,6.06513 L20.07231,6.15995 L19.8456,7.02136 L19.48502,6.92643 L19.71184,6.06513 Z M17.76572,5.58674 L18.1373,5.61776 L18.06305,6.50546 L17.69158,6.474 L17.76572,5.58674 Z M15.75151,5.352 L16.1243,5.352 L16.1243,6.243 L15.75151,6.243 L15.75151,5.352 Z M14.09788,5.58674 L14.17202,6.47444 L13.8,6.50557 L13.72586,5.61787 L14.09788,5.58674 Z M12.15176,6.06513 L12.37847,6.92643 L12.018,7.02147 L11.79129,6.16006 L12.15176,6.06513 Z M10.38296,6.93831 L10.86773,7.68554 L10.555,7.88849 L10.07012,7.14126 L10.38296,6.93831 Z M8.828,8.19726 L9.40946,8.872 L9.12709,9.11532 L8.54563,8.44058 L8.828,8.19726 Z M7.52296,9.58942 L8.19209,10.17748 L7.94602,10.45765 L7.277,9.8697 L7.52296,9.58942 Z M6.41196,11.28529 L7.22277,11.65401 L7.06877,11.99336 L6.25785,11.62475 L6.41196,11.28529 Z M5.70323,13.25781 L6.58554,13.38024 L6.53428,13.74951 L5.65197,13.62719 L5.70323,13.25781 Z M5.42658,15.17753 L6.31758,15.18611 L6.31406,15.55901 L5.42306,15.55032 L5.42658,15.17753 Z M5.50864,17.26995 L6.3948,17.17997 L6.43242,17.55089 L5.54626,17.64087 L5.50864,17.26995 Z M5.91234,19.16404 L6.7798,18.96153 L6.86461,19.32453 L5.99715,19.52715 L5.91234,19.16404 Z M6.8832,21.42674 L6.69862,21.10279 L7.47247,20.66136 L7.65705,20.98542 L6.8832,21.42674 Z M8.14457,23.01382 L7.87397,22.75763 L8.48667,22.11072 L8.75738,22.36724 L8.14457,23.01382 Z M9.57127,24.28102 L9.268,24.06454 L9.785,23.33942 L10.08849,23.55612 L9.57127,24.28102 Z M11.2348,25.39202 L10.9048,25.21888 L11.31939,24.43051 L11.64939,24.60387 L11.2348,25.39202 Z M13.07609,26.09998 L12.70847,26.03849 L12.85543,25.16003 L13.22316,25.22152 L13.07609,26.09998 Z M14.68495,26.4016 L14.67769,25.5106 L15.05059,25.50741 L15.05785,26.39841 L14.68495,26.4016 Z M6.7402,16 C6.7402,10.89402 10.89402,6.7402 16,6.7402 C21.10598,6.7402 25.2598,10.89402 25.2598,16 C25.2598,21.10598 21.10587,25.2598 16,25.2598 C10.89413,25.2598 6.7402,21.10587 6.7402,16 Z M16.726,26.48146 L16.71401,26.48245 L16.63261,25.59552 L17.00397,25.56153 L17.01607,25.56043 L17.09747,26.44747 L16.726,26.48146 Z M18.71062,26.06346 L18.55563,25.18621 L18.9227,25.12131 L19.07769,25.99856 L18.71062,26.06346 Z M20.60482,25.40929 L20.30034,24.57208 L20.65069,24.44459 L20.95495,25.2818 L20.60482,25.40929 Z M22.28639,24.37815 L21.73529,23.67833 L22.02811,23.44733 L22.57943,24.14715 L22.28639,24.37815 Z M23.71991,22.98225 L23.07916,22.36361 L23.33821,22.09543 L23.97885,22.71418 L23.71991,22.98225 Z M24.89207,21.47668 L24.1719,20.95231 L24.39135,20.65102 L25.11163,21.17539 L24.89207,21.47668 Z M25.84357,19.68643 L25.00229,19.3935 L25.12494,19.0415 L25.96622,19.33465 L25.84357,19.68643 Z M26.36904,17.65748 L25.47925,17.61612 L25.49641,17.24388 L26.38631,17.28502 L26.36904,17.65748 Z M19.53562,20.73198 L19.25809,20.45126 L18.71909,19.90599 C19.34433,19.31199 19.74,18.7126 19.67609,17.33199 C19.67103,17.22441 19.68236,15.84897 19.68236,15.73985 C19.68236,15.63073 19.67873,14.8142 19.67884,14.70728 C19.68236,12.15737 19.05932,11.00105 17.34079,10.59152 C17.14631,10.54521 16.20779,10.52112 16.00429,10.52112 L15.9131,10.52112 C15.70982,10.52112 14.64678,10.54521 14.45241,10.59152 C12.73377,11.00061 12.11084,12.15704 12.11447,14.70673 C12.11447,14.81365 12.11095,15.63073 12.11095,15.7393 C12.11095,15.84787 12.12195,17.2243 12.11722,17.33144 C12.00007,19.8874 13.45394,20.67269 15.02793,20.61527 L16.76593,20.61527 C17.22716,20.6321 17.67794,20.54421 18.08186,20.34797 L18.71447,20.98817 L18.992,21.269 L18.992,21.26834 C19.15095,21.4197 19.39372,21.42663 19.5409,21.28121 C19.68808,21.13579 19.6839,20.89291 19.53463,20.73231 L19.53562,20.73198 Z M16.87725,19.80413 C16.85019,19.80413 16.82313,19.80413 16.79585,19.80259 L16.781,19.80193 L15.01286,19.80193 L14.99801,19.80259 C14.97095,19.80358 14.94356,19.80413 14.91661,19.80413 C14.54261,19.80413 14.00603,19.70887 13.57285,19.25545 C13.10656,18.76738 12.88403,18.35862 12.92946,17.36873 C12.93265,17.29987 12.93287,17.29756 12.92583,16.05621 C12.92484,15.88791 12.92418,15.76636 12.92418,15.73941 C12.92418,15.69123 12.92484,15.38059 12.92572,15.04113 C12.9266,14.61499 12.92781,14.76536 12.92781,14.70563 C12.92616,13.57593 13.05376,12.59429 13.32898,12.15055 C13.49211,11.88743 13.77415,11.59098 14.62775,11.38528 C14.79605,11.35987 15.65592,11.33369 15.91343,11.33369 L16.00528,11.33369 C16.26268,11.33369 16.99847,11.35987 17.16666,11.38528 C18.02026,11.59098 18.3023,11.88743 18.46543,12.15055 C18.74043,12.59429 18.86825,13.57582 18.8666,14.70563 C18.8666,14.76536 18.86759,14.61499 18.86869,15.04113 C18.86946,15.3807 18.87023,15.69123 18.87023,15.73941 C18.87023,15.76647 18.86957,15.88791 18.86847,16.05621 C18.86132,17.29756 18.86165,17.29987 18.86484,17.36873 C18.91016,18.35873 18.68774,18.76705 18.22156,19.25545 C18.19747,19.28053 18.17272,19.30451 18.14797,19.32761 L17.64934,18.82293 L17.3717,18.54221 C17.21297,18.39118 16.96998,18.38425 16.8228,18.52967 C16.67562,18.67509 16.6798,18.91797 16.82907,19.07835 L17.1066,19.35918 L17.463,19.71976 C17.2729082,19.7762935 17.0755694,19.8047177 16.87725,19.80413 Z"/>
</svg>

<svg xmlns="http://www.w3.org/2000/svg" width="32" height="32"><path d="M16 32C7.163 32 0 24.837 0 16S7.163 0 16 0s16 7.163 16 16-7.163 16-16 16zm0-27C9.925 5 5 9.925 5 16s4.925 11 11 11 11-4.925 11-11S22.075 5 16 5zm10.44 10.55l-.89.009-.004-.373.891-.008.004.372zm-.228-1.923l-.883.123-.051-.37.882-.122.052.37zm-.76-2.342l.154.34-.811.368-.154-.339.81-.369zM24.34 9.59l.246.28-.67.588-.245-.28.669-.588zm-1.305-1.393l.282.244-.581.674-.283-.243.582-.675zM21.48 6.938l.312.203-.485.747-.312-.202.485-.748zm-1.77-.873l.361.095-.226.861-.361-.095.227-.86zm-1.945-.478l.371.03-.074.888-.371-.031.074-.887zm-2.014-.235h.372v.891h-.372v-.891zm-1.654.235l.074.887-.372.032-.074-.888.372-.031zm-1.946.478l.226.861-.36.095-.227-.86.36-.096zm-1.769.873l.485.748-.313.202-.485-.747.313-.203zm-1.555 1.26l.581.674-.282.243-.581-.674.282-.244zM7.523 9.588l.67.588-.247.28-.669-.587.246-.28zm-1.111 1.696l.81.369-.153.34-.811-.37.154-.339zm-.709 1.973l.883.122-.052.37-.882-.123.051-.37zm-.276 1.92l.89.008-.003.373-.89-.009.003-.372zm.082 2.092l.886-.09.037.37-.886.09-.037-.37zm.403 1.894l.868-.202.085.363-.868.202-.085-.363zm.971 2.263l-.184-.324.773-.442.185.324-.774.442zm1.262 1.587l-.271-.256.613-.647.27.256-.612.647zM9.57 24.28l-.303-.216.517-.726.303.217-.517.725zm1.664 1.111l-.33-.173.414-.788.33.173-.414.788zm1.841.708l-.368-.062.147-.878.368.062-.147.878zm1.609.302l-.007-.891.373-.004.007.891-.373.004zM6.74 16c0-5.106 4.154-9.26 9.26-9.26s9.26 4.154 9.26 9.26-4.154 9.26-9.26 9.26S6.74 21.106 6.74 16zm9.986 10.481l-.012.001-.081-.886.371-.034.012-.002.081.887-.371.034zm1.985-.418l-.155-.877.367-.065.155.878-.367.064zm1.894-.654l-.305-.837.35-.127.305.837-.35.127zm1.681-1.03l-.55-.7.292-.232.551.7-.293.231zm1.434-1.397l-.64-.618.258-.269.64.62-.258.267zm1.172-1.505l-.72-.525.22-.301.72.524-.22.302zm.952-1.79l-.842-.294.123-.352.841.294-.122.351zm.525-2.03l-.89-.04.017-.373.89.041-.017.372zm-6.833 3.075l-.278-.28-.539-.546c.625-.594 1.021-1.193.957-2.574-.005-.108.006-1.483.006-1.592l-.003-1.033c.003-2.55-.62-3.706-2.338-4.115-.195-.047-1.133-.07-1.337-.07h-.09c-.204 0-1.267.023-1.462.07-1.718.409-2.341 1.565-2.338 4.115l-.003 1.032c0 .109.01 1.485.006 1.592-.117 2.556 1.337 3.342 2.91 3.284h1.739a2.77 2.77 0 0 0 1.316-.267l.632.64.278.281c.159.15.402.158.549.012.147-.145.143-.388-.006-.549zm-2.659-.928l-.081-.001-.015-.001h-1.783a2.237 2.237 0 0 1-.081.002c-.374 0-.911-.095-1.344-.549-.466-.488-.689-.896-.644-1.886.004-.07.004-.071-.003-1.313a117.056 117.056 0 0 1 0-1.015c0-.426.002-.276.002-.335-.002-1.13.126-2.112.401-2.555.163-.264.445-.56 1.299-.766.168-.025 1.028-.051 1.285-.051h.092c.258 0 .993.026 1.162.051.853.206 1.135.502 1.298.766.275.443.403 1.425.402 2.555l.002.335.001.698-.002.317c-.007 1.242-.006 1.244-.003 1.313.045.99-.177 1.398-.643 1.886l-.074.073-.499-.505-.277-.28c-.159-.152-.402-.159-.55-.013-.146.145-.142.388.007.548l.278.281.356.36c-.19.057-.387.086-.586.085z"/></svg>
